X:1
T:O Great God of Nations
T:O Great God of Nations
T:Jonathan Edwards Spilman, 1837
T:Richard W. Adams, 2001
T:© 2001 Richard W. Adams. Reproduce or publish freely for Christian worship or devotions. Courtesy of the Cyber Hymnal™
T:© 2001 Richard W. Adams. Reproduce or publish freely for Christian worship or devotions. Courtesy of the Cyber Hymnal™
C:Jonathan Edwards Spilman, 1837
Z:© 2001 Richard W. Adams. Reproduce or publish freely for Christian worship or devotions.
Z:Courtesy of the Cyber Hymnal™
%%score ( 1 2 ) ( 3 4 )
L:1/8
Q:1/4=112
M:3/4
K:A
V:1 treble 
V:2 treble 
V:3 bass 
V:4 bass 
V:1
 [CE]2 | A2 A2 (AG) | A2 A2 [A,E]2 | z2 A2 [DF]2 | [CE]4 E2- | [EA]4 [GB]2 | [Ac]2 [Ac]2 [ce]2 | %7
w: 1.~O|great God of *|na- tions, re-|vive us,|we pray,|Raise pro-|gal hearts to|
w: 2.~For-|sake not Your *|peo- ple though|far we|do roam,|As he-|ists, spend- thrifts,|
w: 3.~In|faith and in *|gra- ti- tude,|then, must|we share|The good|of Je- sus|
 [ce]2 [Ac]2 [FA]2 | B4 [DE]2 | [EA]2 [DA]2 (cB) | [CA]2 [CA]2 [CE]2 | [DF]2 [Fd]2 [DF]2 | %12
w: con- tri- tion|to- day;|In pride have *|we turned from|Your life giv-|
w: a- ban- don-|ing home;|But fin- al- *|ly, throw- ing|our fol- ly|
w: with lands ev-|ery- where,|With peo- ples *|still grop- ing|and stum- bling|
 [CE]4 E2 | [CA]2 [CA]2 [EB]2 | [Ac]2 [ce]2 [Bd]2 | [CE]2 [CE]2 [DG]2 | [CA]4 ([EG][FA]) | %17
w: ing Word,|Em- brac- ing|the dark- ness|while truth goes|un- heard. *|
w: a- side,|We see You|are wait- ing|with arms o-|pen wide. *|
w: in night;|For them You|com- mand us|to send out|the light. *|
 [GB]2 [GB]2 [Ge]2 | [GB]2 [GB]2 [EG]2 | [GB]2 [FA]2 [^DF]2 | [EG]4 ([EG][FA]) | %21
w: Cre- ate deep|with- in us|a clean heart|to- day, *|
w: We plead Your|for- give- ness,|our Fa- ther,|we pray, *|
w: To shout from|the roof- tops,|pro- claim o’er|the wave, *|
 [GB]2 [GB]2 [Ge]2 | [GB]2 [GB]2 [EG]2 | ([FA][^EG]) ([FA][GB]) (c^d) | [Ge]4 [df]2 | %25
w: Re- new a|right spir- it,|and * teach * us *|to say:|
w: O heal pride-|ful blind- ness|and * teach * us *|to say:|
w: That Christ has|re- deemed from|the * depths * of *|the grave:|
 [ce]2 [Ec]2 ([Ec][DB]) | [CA]2 [CA]2 E2 | [DF]2 [Fd]2 [DF]2 | [CE]4 [CE]2 | [CA]2 [CA]2 [FB]2 | %30
w: A- wak- en, *|my soul, and|send an- thems|a- bove,|To Him Who|
w: How might- y *|the love that|can con- quer|our sin,|And o- pen|
w: Pour out, then, *|Your Spir- it,|a- fresh in|this hour,|En- a- ble|
 [Ec]2 [=Ge]2 [Fd]2 | E2 [CE]2 [DG]2 | [CA]4 |] %33
w: is yearn- ing|to bless you|in|
w: the door to|the ban- quet|with-|
w: our tongues to|speak out with|Your|
V:2
 x2 | C4 D2 | [CE]4 x2 | [A,F]4 x2 | x4 E2 | C2 E2 x2 | x6 | x6 | (G2 E2) x2 | x4 G2 | x6 | x6 | %12
w: |||||di- *|||||||
w: |||||don- *|||||||
w: |||||news *|||||||
 x4 E2 | x6 | x6 | x6 | x6 | x6 | x6 | x6 | x6 | x6 | x6 | x4 A2 | x6 | x6 | x4 E2 | x6 | x6 | x6 | %30
w: ||||||||||||||||||
w: ||||||||||||||||||
w: ||||||||||||||||||
 x6 | E2 x4 | x4 |] %33
w: |||
w: |||
w: |||
V:3
 E,2 | [A,,E,]4 [E,,E,]2 | [A,,E,]4 C,2 | D,2 F,2 D,2 | A,,4 E,,2 | [C,E,]4 [B,,E,]2 | %6
 [A,,E,]4 [C,G,]2 | [F,,F,]4 B,,2 | [E,,E,]4 [E,G,]2 | [A,,E,]4 [E,,E,]2 | [F,,F,]4 [C,,E,,C,]2 | %11
 [D,,D,]4 [D,A,]2 | [A,,A,]4 E,2 | =E,2 [C,E,]2 [B,,G,]2 | [A,,A,]2 [^A,,E,]2 [B,,F,]2 | %15
 [E,A,]4 [E,,E,-]2 | [A,,E,]4 (G,[F,A,]) | [E,G,B,]4 [E,B,]2 | [E,B,]6 | [B,,B,-]6 | (B,2 B,2) z2 | %21
 E,,6- | =E,,4 [E,B,]2 | [^D,B,]2 [B,,,B,,]2 [B,,B,-]2 | [E,B,]4 [G,,G,]2 | A,4 [E,G,]2 | %26
 [F,A,]4 [C,,C,]2 | [D,,D,]4 F,,2 | A,,4 (A,,G,,) | [F,,F,]2 [E,A,]2 [D,A,]2 | %30
 [C,A,]2 [C,,C,]2 [D,,D,]2 | [E,,E,]4 [E,B,]2 | [A,,A,]4 |] %33
V:4
 E,2 | x6 | x4 C,2 | D,2 F,2 D,2 | A,,4 E,,2 | x6 | x6 | x4 B,,2 | x6 | x6 | x6 | x6 | x4 E,2- | %13
 =E,2 x4 | x6 | x6 | x4 E,2- | x6 | x6 | x6 | E,4 x2 | E,,6 | =E,,4 x2 | x6 | x6 | A,,2 C,2 x2 | %26
 x6 | x4 F,,2 | A,,4 x2 | x6 | x6 | x6 | x4 |] %33

